src/xmb/monochrome/Nintendo - Wii U (Digital) (CDN).svg

<svg xmlns="http://www.w3.org/2000/svg" xml:space="preserve" id="svg4903" x="0" y="0" version="1.1" viewBox="0 0 64 64"><style>.st0{fill:#fff}</style><g id="g4921" transform="translate(54.5 37)"><path id="path4923" d="M0-10c-1.4 0-2.5-1.1-2.5-2.5S-1.4-15 0-15s2.5 1.1 2.5 2.5S1.4-10 0-10m-.5 5c-.6 0-1-.4-1-1s.4-1 1-1 1 .4 1 1-.4 1-1 1m-2 2c-.6 0-1-.4-1-1s.4-1 1-1 1 .4 1 1-.4 1-1 1m-2-2c-.6 0-1-.4-1-1s.4-1 1-1 1 .4 1 1-.4 1-1 1M-5 0c-.3 0-.5-.2-.5-.5s.2-.5.5-.5.5.2.5.5-.2.5-.5.5m0 2c-.3 0-.5-.2-.5-.5s.2-.5.5-.5.5.2.5.5-.2.5-.5.5m-2.5 2h-30v-18h30zM-8 7c-.3 0-.5-.2-.5-.5s.2-.5.5-.5.5.2.5.5-.2.5-.5.5m-3 0c-.3 0-.5-.2-.5-.5s.2-.5.5-.5.5.2.5.5-.2.5-.5.5m-11.5 1c-.8 0-1.5-.7-1.5-1.5s.7-1.5 1.5-1.5 1.5.7 1.5 1.5-.7 1.5-1.5 1.5m-17-13h-2v2h-2v-2h-2v-2h2v-2h2v2h2zm-8-7.5c0-1.4 1.1-2.5 2.5-2.5s2.5 1.1 2.5 2.5S-43.6-10-45-10s-2.5-1.1-2.5-2.5m25-5.5c.6 0 1 .4 1 1s-.4 1-1 1-1-.4-1-1 .4-1 1-1m20 9c.6 0 1 .4 1 1s-.4 1-1 1-1-.4-1-1 .4-1 1-1m3-10h-46c-2.2 0-4 1.8-4 4V5c0 2.2 1.8 4 4 4h46c2.2 0 4-1.8 4-4v-20c0-2.2-1.8-4-4-4" class="st0"/></g><path d="M30.3 31.6V27c0-.4.3-.8.8-.8h1.5c.4 0 .8.3.8.8v4.6h2.3l-3.8 4.6-3.9-4.6zm4.9 6.1h-6.8c-.2 0-.4-.2-.4-.4s.2-.4.4-.4h6.8c.2 0 .4.2.4.4 0 .3-.1.4-.4.4m.8-2.3h-.8v.8h-.8v-.8h-.8v-.8h.8v-.8h.8v.8h.8z" class="st0"/></svg>

<?xml version="1.0" encoding="utf-8"?>
<!-- Generator: Adobe Illustrator 26.3.1, SVG Export Plug-In . SVG Version: 6.00 Build 0)  -->
<svg version="1.1"
	 id="svg4903" xmlns:svg="http://www.w3.org/2000/svg" xmlns:dc="http://purl.org/dc/elements/1.1/" xmlns:rdf="http://www.w3.org/1999/02/22-rdf-syntax-ns#" xmlns:sodipodi="http://sodipodi.sourceforge.net/DTD/sodipodi-0.dtd" xmlns:inkscape="http://www.inkscape.org/namespaces/inkscape" xmlns:cc="http://creativecommons.org/ns#"
	 xmlns="http://www.w3.org/2000/svg" xmlns:xlink="http://www.w3.org/1999/xlink" x="0px" y="0px" viewBox="0 0 64 64"
	 style="enable-background:new 0 0 64 64;" xml:space="preserve">
<style type="text/css">
	.st0{fill:#FFFFFF;}
</style>
<sodipodi:namedview  bordercolor="#666666" borderopacity="1" gridtolerance="10" guidetolerance="10" id="namedview4905" inkscape:current-layer="g4911" inkscape:cx="6.9736842" inkscape:cy="40" inkscape:pageopacity="0" inkscape:pageshadow="2" inkscape:window-height="1005" inkscape:window-maximized="1" inkscape:window-width="1676" inkscape:window-x="4" inkscape:window-y="1" inkscape:zoom="3.8" objecttolerance="10" pagecolor="#808080" showgrid="false">
	</sodipodi:namedview>
<g id="g4911" transform="matrix(1.25,0,0,-1.25,0,64)" inkscape:label="Nintendo - Wii U" inkscape:groupmode="layer">
	<g id="g4913" transform="scale(0.8,0.8)">
	</g>
</g>
<g id="g4915">
</g>
<g id="g4921" transform="translate(54.5,37)">
	<path id="path4923" inkscape:connector-curvature="0" class="st0" d="M0-10c-1.4,0-2.5-1.1-2.5-2.5S-1.4-15,0-15s2.5,1.1,2.5,2.5
		S1.4-10,0-10 M-0.5-5c-0.6,0-1-0.4-1-1s0.4-1,1-1s1,0.4,1,1S0.1-5-0.5-5 M-2.5-3c-0.6,0-1-0.4-1-1s0.4-1,1-1s1,0.4,1,1
		S-1.9-3-2.5-3 M-4.5-5c-0.6,0-1-0.4-1-1s0.4-1,1-1s1,0.4,1,1S-3.9-5-4.5-5 M-5,0c-0.3,0-0.5-0.2-0.5-0.5S-5.3-1-5-1
		s0.5,0.2,0.5,0.5S-4.7,0-5,0 M-5,2c-0.3,0-0.5-0.2-0.5-0.5S-5.3,1-5,1s0.5,0.2,0.5,0.5S-4.7,2-5,2 M-7.5,4h-30v-18h30V4z M-8,7
		c-0.3,0-0.5-0.2-0.5-0.5S-8.3,6-8,6s0.5,0.2,0.5,0.5S-7.7,7-8,7 M-11,7c-0.3,0-0.5-0.2-0.5-0.5S-11.3,6-11,6s0.5,0.2,0.5,0.5
		S-10.7,7-11,7 M-22.5,8C-23.3,8-24,7.3-24,6.5S-23.3,5-22.5,5S-21,5.7-21,6.5S-21.7,8-22.5,8 M-39.5-5h-2v2h-2v-2h-2v-2h2v-2h2v2h2
		V-5z M-47.5-12.5c0-1.4,1.1-2.5,2.5-2.5s2.5,1.1,2.5,2.5S-43.6-10-45-10S-47.5-11.1-47.5-12.5 M-22.5-18c0.6,0,1,0.4,1,1
		s-0.4,1-1,1s-1-0.4-1-1S-23.1-18-22.5-18 M-2.5-9c0.6,0,1,0.4,1,1s-0.4,1-1,1s-1-0.4-1-1S-3.1-9-2.5-9 M0.5-19h-46
		c-2.2,0-4,1.8-4,4V5c0,2.2,1.8,4,4,4h46c2.2,0,4-1.8,4-4v-20C4.5-17.2,2.7-19,0.5-19"/>
</g>
<g>
	<path class="st0" d="M30.3,31.6v-4.6c0-0.4,0.3-0.8,0.8-0.8h1.5c0.4,0,0.8,0.3,0.8,0.8v4.6h2.3l-3.8,4.6L28,31.6
		C28,31.6,30.3,31.6,30.3,31.6z M35.2,37.7h-6.8c-0.2,0-0.4-0.2-0.4-0.4s0.2-0.4,0.4-0.4h6.8c0.2,0,0.4,0.2,0.4,0.4
		C35.6,37.6,35.5,37.7,35.2,37.7z M36,35.4h-0.8v0.8h-0.8v-0.8h-0.8v-0.8h0.8v-0.8h0.8v0.8H36L36,35.4L36,35.4z"/>
</g>
</svg>
